dist/img/icons/socials/inst.svg

<svg width="36" height="35" viewBox="0 0 36 35" fill="none" xmlns="http://www.w3.org/2000/svg">
<path d="M19.8504 0.00215312C21.1639 -0.0027471 22.4773 0.0100872 23.7904 0.0406519L24.1396 0.0529015C24.5428 0.066901 24.9406 0.0844003 25.4211 0.1054C27.3362 0.192897 28.643 0.486887 29.7895 0.919122C30.9774 1.36361 31.9782 1.96559 32.9789 2.93855C33.894 3.81283 34.6021 4.87039 35.0542 6.0377C35.4988 7.15241 35.8012 8.42462 35.8912 10.2866C35.9128 10.752 35.9308 11.1405 35.9452 11.5325L35.956 11.872C35.988 13.148 36.0018 14.4245 35.9974 15.7009L35.9992 17.0063V19.2987C36.0036 20.5757 35.9898 21.8527 35.9578 23.1294L35.947 23.4689C35.9326 23.8608 35.9146 24.2476 35.893 24.7148C35.803 26.5767 35.497 27.8472 35.0542 28.9619C34.6036 30.1305 33.8953 31.1889 32.9789 32.0628C32.0789 32.9523 30.9906 33.6408 29.7895 34.0805C28.643 34.5127 27.3362 34.8067 25.4211 34.8942C24.9406 34.9152 24.5428 34.9327 24.1396 34.9467L23.7904 34.9572C22.4773 34.9883 21.1639 35.0017 19.8504 34.9975L18.5077 34.9992H16.1516C14.8381 35.0035 13.5247 34.9901 12.2116 34.959L11.8624 34.9485C11.4351 34.9334 11.008 34.9159 10.5809 34.896C8.66579 34.8085 7.35906 34.511 6.21072 34.0805C5.00961 33.6419 3.92166 32.9532 3.02308 32.0628C2.10701 31.1883 1.39817 30.1301 0.94599 28.9619C0.501413 27.8472 0.199028 26.5767 0.109033 24.7148C0.0889872 24.2996 0.0709879 23.8843 0.0550357 23.4689L0.0460364 23.1294C0.0128526 21.8528 -0.00214827 20.5758 0.00103855 19.2987V15.7009C-0.00398493 14.4245 0.00921579 13.1481 0.0406366 11.872L0.0532359 11.5325C0.0676352 11.1405 0.0856342 10.752 0.107233 10.2866C0.197228 8.42287 0.499613 7.15416 0.94419 6.0377C1.39664 4.86982 2.10687 3.81255 3.02488 2.9403C3.92285 2.04915 5.01011 1.35936 6.21072 0.919122C7.35906 0.486887 8.66399 0.192897 10.5809 0.1054L11.8624 0.0529015L12.2116 0.044152C13.5241 0.0119055 14.8369 -0.0026789 16.1498 0.000403305L19.8504 0.00215312ZM18.0001 8.75185C16.8077 8.73546 15.6238 8.94964 14.5173 9.38195C13.4107 9.81426 12.4036 10.4561 11.5544 11.2701C10.7052 12.0841 10.0308 13.0541 9.57058 14.1238C9.11032 15.1934 8.87331 16.3412 8.87331 17.5007C8.87331 18.6601 9.11032 19.808 9.57058 20.8776C10.0308 21.9472 10.7052 22.9172 11.5544 23.7313C12.4036 24.5453 13.4107 25.1871 14.5173 25.6194C15.6238 26.0517 16.8077 26.2659 18.0001 26.2495C20.3869 26.2495 22.676 25.3277 24.3637 23.6868C26.0515 22.0459 26.9996 19.8204 26.9996 17.4998C26.9996 15.1792 26.0515 12.9537 24.3637 11.3128C22.676 9.67195 20.3869 8.75185 18.0001 8.75185ZM18.0001 12.2517C18.7174 12.2389 19.4301 12.3651 20.0966 12.6231C20.7632 12.881 21.3701 13.2655 21.8821 13.7541C22.3941 14.2427 22.8008 14.8256 23.0785 15.4687C23.3561 16.1118 23.4992 16.8023 23.4993 17.4998C23.4994 18.1973 23.3566 18.8878 23.0791 19.531C22.8017 20.1742 22.3952 20.7572 21.8834 21.246C21.3716 21.7347 20.7648 22.1194 20.0983 22.3776C19.4319 22.6358 18.7192 22.7622 18.0019 22.7496C16.5698 22.7496 15.1964 22.1965 14.1837 21.212C13.1711 20.2275 12.6022 18.8921 12.6022 17.4998C12.6022 16.1075 13.1711 14.7722 14.1837 13.7876C15.1964 12.8031 16.5698 12.25 18.0019 12.25L18.0001 12.2517ZM27.4496 6.12694C26.869 6.14954 26.3198 6.3897 25.9172 6.79712C25.5146 7.20454 25.2897 7.74762 25.2897 8.31262C25.2897 8.87762 25.5146 9.4207 25.9172 9.82812C26.3198 10.2355 26.869 10.4757 27.4496 10.4983C28.0463 10.4983 28.6186 10.2678 29.0405 9.85761C29.4625 9.44739 29.6995 8.89101 29.6995 8.31087C29.6995 7.73073 29.4625 7.17435 29.0405 6.76413C28.6186 6.35391 28.0463 6.12345 27.4496 6.12345V6.12694Z" fill="#C9CDCA"/>
</svg>

<svg width="36" height="35" viewBox="0 0 36 35" fill="none" xmlns="http://www.w3.org/2000/svg"><path d="M19.85.002c1.314-.005 2.627.008 3.94.039l.35.012c.403.014.8.031 1.281.052 1.915.088 3.222.382 4.369.814a8.787 8.787 0 013.189 2.02 8.568 8.568 0 012.075 3.099c.445 1.114.747 2.387.837 4.249.022.465.04.853.054 1.245l.011.34c.032 1.276.046 2.553.041 3.829L36 17.006V19.3c.005 1.277-.01 2.554-.041 3.83l-.011.34c-.014.392-.032.779-.054 1.246-.09 1.862-.396 3.132-.839 4.247a8.526 8.526 0 01-2.075 3.1 8.876 8.876 0 01-3.19 2.019c-1.146.432-2.453.726-4.368.813-.48.021-.878.039-1.281.053l-.35.01a146.6 146.6 0 01-3.94.04L18.508 35h-2.356c-1.314.005-2.627-.009-3.94-.04l-.35-.01c-.427-.016-.854-.033-1.281-.053-1.915-.087-3.222-.385-4.37-.816a8.83 8.83 0 01-3.188-2.017 8.563 8.563 0 01-2.077-3.101c-.445-1.115-.747-2.385-.837-4.247-.02-.415-.038-.83-.054-1.246l-.009-.34a134.501 134.501 0 01-.045-3.83v-3.6c-.005-1.277.008-2.553.04-3.829l.012-.34c.015-.392.033-.78.054-1.245.09-1.864.393-3.133.837-4.25a8.522 8.522 0 012.08-3.097A8.842 8.842 0 016.212.92C7.359.486 8.664.192 10.58.104l1.281-.052.35-.009A146.35 146.35 0 0116.15 0l3.7.002zM18 8.752a9.226 9.226 0 00-3.483.63 9.027 9.027 0 00-2.963 1.888 8.74 8.74 0 00-1.983 2.854 8.54 8.54 0 000 6.754 8.742 8.742 0 001.983 2.853 9.027 9.027 0 002.963 1.888 9.226 9.226 0 003.483.63 9.131 9.131 0 006.364-2.562A8.628 8.628 0 0027 17.5c0-2.32-.948-4.546-2.636-6.187A9.13 9.13 0 0018 8.752zm0 3.5a5.536 5.536 0 012.097.371 5.416 5.416 0 011.785 1.131 5.246 5.246 0 011.196 1.715 5.125 5.125 0 01.001 4.062 5.245 5.245 0 01-1.196 1.715 5.418 5.418 0 01-1.785 1.132 5.536 5.536 0 01-2.096.372 5.48 5.48 0 01-3.818-1.538 5.177 5.177 0 01-1.582-3.712 5.18 5.18 0 011.582-3.712 5.48 5.48 0 013.818-1.538l-.002.002zm9.45-6.125a2.28 2.28 0 00-1.533.67c-.402.408-.627.95-.627 1.516 0 .565.225 1.108.627 1.515a2.28 2.28 0 001.533.67 2.28 2.28 0 001.59-.64c.422-.41.66-.967.66-1.547s-.238-1.137-.66-1.547a2.283 2.283 0 00-1.59-.64v.003z" fill="#C9CDCA"/></svg>
